X: 1
T: Money in Both Pockets
R: jig
S: Fiddle Hell Online 2022-3-26 handout for Fiddle Hell jam session
B: the Portland Collection 1 p.147
Z: 2022 John Chambers <jc:trillian.mit.edu>
M: 6/8
L: 1/8
K: D
c |\
"D"d2F FEF | DFA AFD | d2F FEF | D2f fef ||\
"D"d2F FEF | DFA AFD | "Em"E3 EFA | "G"B3 B2 :|
|: c |\
"D"dfa afd | "A"cea ecA | "D"dfa afd | "G"g3 "D"fga ||\
"G"bag "D"agf | "A"ede "D"fdB | ABA AFA | "G"B3 B2 :|
